X: 205
T: Eryuan xishan baizu duichang
%%abc-version 2.0
%%abcx-abcm2ps-target-version 5.9.1 (29 Sep 2008)
%%abc-creator hum2abc beta
%%abcx-conversion-date 2013/10/02 07:44:28
%%abc-edited-by Helmut Schaffrath
%%humdrum-veritas 3747822089
%%humdrum-veritas-data 1856426899
%%continueall 1
%%barnumbers 0
L: 1/8
M: 2/4
K: F
A A c c [I:setbarnb 1]| 
A cd2- | 
d4 | 
e3z | 
A A d d | 
d d c/ A/ c | 
F G A A/ c/ | 
G2D D | 
D2z2 | 
A A c c | 
A c f d | 
d4- | 
d2c/ A/ c | 
c d/ c/ A A | 
F AG2- | 
G2z2 | 
D D d d | 
f d c/ A/ c | 
F G A c | 
G2D D | 
D2z2 | 
A A c c | 
A cd2- | 
d4 | 
e3z | 
A A d d | 
d d c/ A/ c | 
F G A A/ c/ | 
G2D D | 
D2z2 | 
A A c c | 
A c f d | 
d4- | 
d2c/ A/ c | 
c d/ c/ A A | 
F AG2- | 
G3d/ d/ | 
f f d d | 
f d c/ A/ c | 
F G A c | 
G2D D | 
D2z2 |]  



